!!!OTL: Belagerung von Landau (130), S. 297
!!!id: T0300
**kern
*clefG2
*k[]
*G:
{4d
=1
4g
4g
4g
=2
4g
4g
8b
8b
=3
4a
4b
4a
=4
2g}
=5
{4d
=6
4g
4g
4g
=7
4g
4g
8b
8b
=8
4a
4b
4a
=9
2g}
=10
{4b
=11
4b
4a
4b
=12
4a
4g
4a
=13
4b
4a
4b
=14
4a
4g}
=15
{4d
=16
2g
4g
=17
4g
4g
4b
=18
8a
8a
4b
4a
=19
8g
8g}
4r
==
*-
!!!minrhy: 8
!!!meters: 3/4 ]  ZZ[4
!!!cut: Belagerung von Landau (130), S. 297
!!!reg: Luxemburg
!!!trd: Singendes Volk, Esch-Alzette 1937, posth.
!!!rhy1: X_  X_X_X_  X_X_XX  X_X_X_  X__
!!!rhy2: X_  X_X_X_  X_X_XX  X_X_X_  X__
!!!key: T0300  08  G 3/4 ]  ZZ[4
!!!mod: VIERTONSKALA ]  AMBITUS[6
!!!kad: 1111
!!!akz: 1121_1121_3232_1121_
!!!fot: 'a__a__b__av_
!!!for: 'a__a__b__c__
!!!fok: '^a_^a_\__^a_
!! PHRAS[AUFTAKTIG]
!!!fkt: historische, Kriegs- und Soldatenlieder
!!!bem: Savelborn, hhh "GroPvater" Schmit, 1908
!! THILL, Mathias:
!! PR[37] 2K[5] 2G[16] 3K[5] 3G[5] 4A[0] 4Ü[0] 5A[0] 6K[0] 6G[0]
!! 7K[0] 7G[0] 8A[0] MEHR[0] SI[32] ABS[38] SR[21] SP[11]
!! ST[10] 2k[5] 2g[21] 3k[3] 3g[3] 4d[0] 4ü[0] 5d[0] 6k[0] 6g[0]
!! 7k[0] 7g[0] 8d[0] mehr[0] si[32] dm[0] sr[26] sp[5]
!! 1F[10] 2F[51] 3F[27] 4F[0] LF[0] 2P[0] 3P[12] 4P[0] TRI[0] DF[4] AB[41]
!! TF[0] U3K[0] U3[0] U4[0] U4Ü[0] U5[0] U6K[0] U6[0] U7K[0] U7[0]
!! N1[10] N2K[0] N2[31] N3K[0] N3[38] N4[5] N4Ü[0] N5[10] N6K[0] N6[5]
!!!n7k: 0] N7[0] O1[0] O2K[0] O2[0] O3K[0] O3[0] HÖ[0
